X: 39746
T: Thadelo's
R: polka
M: 2/4
K: Amajor
|:AG/A/ Bc/B/|AG/A/ f2|e/c/B e/c/B|c/B/A ec/B/|
AG/A/ Bc/B/|AG/A/ f2|e/c/B e/c/B|1 c/B/A ec/B/:|2 c/B/A ec/e/||
|:a>f e>f|ec BA|Bc e>f|ec BA|
a>f e>f|ec BA|Bc e/f/e/c/|1 BA Ac/e/:|2 BA ec/B/||

